X: 19949
T: Jiggery Pokerwork
R: jig
M: 6/8
K: Eminor
|:E2 F GFE|B2 c A3|A2 B G2 B|BAG ~F3|
E2 F GFE|B2 c A3|A2 B G2 B|BAF E3:|
|:B_B=B GEB|_B=BG EB_B|BGE cGE|dAF ~g3|
B_B=B GEB|_B=BG EB_B|A3 dcd|BAF E3:|

